svg/editor/formula_line.svg

<?xml version="1.0" encoding="UTF-8"?>
<svg width="24px" height="24px" viewBox="0 0 24 24" version="1.1" xmlns="http://www.w3.org/2000/svg" xmlns:xlink="http://www.w3.org/1999/xlink">
    <title>formula_line</title>
    <g id="页面-1" stroke="none" stroke-width="1" fill="none" fill-rule="evenodd">
        <g id="Editor" transform="translate(-480.000000, -96.000000)">
            <g id="formula_line" transform="translate(480.000000, 96.000000)">
                 <path d="M24,0 L24,24 L0,24 L0,0 L24,0 Z M12.5934901,23.257841 L12.5819402,23.2595131 L12.5108777,23.2950439 L12.4918791,23.2987469 L12.4918791,23.2987469 L12.4767152,23.2950439 L12.4056548,23.2595131 C12.3958229,23.2563662 12.3870493,23.2590235 12.3821421,23.2649074 L12.3780323,23.275831 L12.360941,23.7031097 L12.3658947,23.7234994 L12.3769048,23.7357139 L12.4804777,23.8096931 L12.4953491,23.8136134 L12.4953491,23.8136134 L12.5071152,23.8096931 L12.6106902,23.7357139 L12.6232938,23.7196733 L12.6232938,23.7196733 L12.6266527,23.7031097 L12.609561,23.275831 C12.6075724,23.2657013 12.6010112,23.2592993 12.5934901,23.257841 L12.5934901,23.257841 Z M12.8583906,23.1452862 L12.8445485,23.1473072 L12.6598443,23.2396597 L12.6498822,23.2499052 L12.6498822,23.2499052 L12.6471943,23.2611114 L12.6650943,23.6906389 L12.6699349,23.7034178 L12.6699349,23.7034178 L12.678386,23.7104931 L12.8793402,23.8032389 C12.8914285,23.8068999 12.9022333,23.8029875 12.9078286,23.7952264 L12.9118235,23.7811639 L12.8776777,23.1665331 C12.8752882,23.1545897 12.8674102,23.1470016 12.8583906,23.1452862 L12.8583906,23.1452862 Z M12.1430473,23.1473072 C12.1332178,23.1423925 12.1221763,23.1452606 12.1156365,23.1525954 L12.1099173,23.1665331 L12.0757714,23.7811639 C12.0751323,23.7926639 12.0828099,23.8018602 12.0926481,23.8045676 L12.108256,23.8032389 L12.3092106,23.7104931 L12.3186497,23.7024347 L12.3186497,23.7024347 L12.3225043,23.6906389 L12.340401,23.2611114 L12.337245,23.2485176 L12.337245,23.2485176 L12.3277531,23.2396597 L12.1430473,23.1473072 Z" id="MingCute" fill-rule="nonzero"></path>
                <path d="M5,4.5 C5,3.67157 5.67157,3 6.5,3 L17.5,3 C18.3284,3 19,3.67157 19,4.5 L19,5 C19,5.55228 18.5523,6 18,6 C17.4477,6 17,5.55228 17,5 L7,5 L7,5.54007 L13.5622,11.1648 C14.0744,11.6038 14.0744,12.3962 13.5622,12.8352 L7,18.4599 L7,19 L17,19 C17,18.4477 17.4477,18 18,18 C18.5523,18 19,18.4477 19,19 L19,19.5 C19,20.3284 18.3284,21 17.5,21 L6.5,21 C5.67157,21 5,20.3284 5,19.5 L5,18.23 C5,17.7921 5.19134,17.3761 5.52381,17.0911 L11.4634,12 L5.52381,6.90892 C5.19134,6.62394 5,6.20792 5,5.77003 L5,4.5 Z" id="路径" fill="#09244B"></path>
            </g>
        </g>
    </g>
</svg>

<svg xmlns="http://www.w3.org/2000/svg" width="24" height="24"><g fill="none" fill-rule="evenodd"><path d="M24 0v24H0V0h24ZM12.593 23.258l-.011.002-.071.035-.02.004-.014-.004-.071-.035c-.01-.004-.019-.001-.024.005l-.004.01-.017.428.005.02.01.013.104.074.015.004.012-.004.104-.074.012-.016.004-.017-.017-.427c-.002-.01-.009-.017-.017-.018Zm.265-.113-.013.002-.185.093-.01.01-.003.011.018.43.005.012.008.007.201.093c.012.004.023 0 .029-.008l.004-.014-.034-.614c-.003-.012-.01-.02-.02-.022Zm-.715.002a.023.023 0 0 0-.027.006l-.006.014-.034.614c0 .012.007.02.017.024l.015-.002.201-.093.01-.008.004-.011.017-.43-.003-.012-.01-.01-.184-.092Z"/><path fill="#09244B" d="M5 4.5A1.5 1.5 0 0 1 6.5 3h11A1.5 1.5 0 0 1 19 4.5V5a1 1 0 1 1-2 0H7v.54l6.562 5.625a1.1 1.1 0 0 1 0 1.67L7 18.46V19h10a1 1 0 1 1 2 0v.5a1.5 1.5 0 0 1-1.5 1.5h-11A1.5 1.5 0 0 1 5 19.5v-1.27a1.5 1.5 0 0 1 .524-1.139L11.464 12l-5.94-5.091A1.5 1.5 0 0 1 5 5.77V4.5Z"/></g></svg>
